assets/arrow-orange-left.svg

<svg width="87" height="87" viewBox="0 0 87 87" fill="none" xmlns="http://www.w3.org/2000/svg">
<rect x="86.6235" y="86.6377" width="86.6234" height="86.6234" rx="43.3117" transform="rotate(180 86.6235 86.6377)" fill="#FE610B"/>
<path d="M43.3119 50.6984L44.6112 49.399L39.4691 44.2477L50.6841 44.2477L50.6841 42.4046L39.4691 42.4046L44.6112 37.2533L43.3119 35.954L35.9397 43.3262L43.3119 50.6984Z" fill="black"/>
</svg>

<svg width="87" height="87" fill="none" xmlns="http://www.w3.org/2000/svg"><rect x="86.624" y="86.638" width="86.623" height="86.623" rx="43.312" transform="rotate(180 86.624 86.638)" fill="#FE610B"/><path d="m43.312 50.698 1.3-1.299-5.143-5.151h11.215v-1.843H39.47l5.142-5.152-1.3-1.299-7.371 7.372 7.372 7.372Z" fill="#000"/></svg>
